round/svg/monochrome_photos.svg

<svg xmlns="http://www.w3.org/2000/svg" width="24" height="24"><path fill="none" d="M0 0h24v24H0V0z"/><g fill="currentColor"><path d="M20 5h-3.2l-1.2-1.34c-.38-.42-.92-.66-1.49-.66H9.89c-.57 0-1.11.24-1.49.66L7.2 5H4c-1.1 0-2 .9-2 2v12c0 1.1.9 2 2 2h16c1.1 0 2-.9 2-2V7c0-1.1-.9-2-2-2zm0 13c0 .55-.45 1-1 1h-7v-1c-2.8 0-5-2.2-5-5s2.2-5 5-5V7h7c.55 0 1 .45 1 1v10zm-3-5c0-2.8-2.2-5-5-5v1.8c1.8 0 3.2 1.4 3.2 3.2s-1.4 3.2-3.2 3.2V18c2.8 0 5-2.2 5-5zm-8.2 0c0 1.8 1.4 3.2 3.2 3.2V9.8c-1.8 0-3.2 1.4-3.2 3.2z"/></g></svg>

<?xml version="1.0" encoding="utf-8"?>
<!-- Generator: Adobe Illustrator 19.1.0, SVG Export Plug-In . SVG Version: 6.00 Build 0)  -->
<svg version="1.1" xmlns="http://www.w3.org/2000/svg" xmlns:xlink="http://www.w3.org/1999/xlink" x="0px" y="0px" width="24px"
	 height="24px" viewBox="0 0 24 24" enable-background="new 0 0 24 24" xml:space="preserve">
<g id="Bounding_Boxes">
	<g id="ui_x5F_spec_x5F_header_copy_2">
	</g>
	<path fill="none" d="M0,0h24v24H0V0z"/>
</g>
<g id="Rounded" fill="currentColor">
	<g id="ui_x5F_spec_x5F_header_copy_6">
	</g>
	<path d="M20,5h-3.2l-1.2-1.34C15.22,3.24,14.68,3,14.11,3H9.89C9.32,3,8.78,3.24,8.4,3.66L7.2,5H4C2.9,5,2,5.9,2,7v12
		c0,1.1,0.9,2,2,2h16c1.1,0,2-0.9,2-2V7C22,5.9,21.1,5,20,5z M20,18c0,0.55-0.45,1-1,1h-7v-1c-2.8,0-5-2.2-5-5s2.2-5,5-5V7h7
		c0.55,0,1,0.45,1,1V18z M17,13c0-2.8-2.2-5-5-5v1.8c1.8,0,3.2,1.4,3.2,3.2s-1.4,3.2-3.2,3.2V18C14.8,18,17,15.8,17,13z M8.8,13
		c0,1.8,1.4,3.2,3.2,3.2V9.8C10.2,9.8,8.8,11.2,8.8,13z"/>
</g>
</svg>
